X: 8
T: The Wandering Minstrel
R: jig
M: 6/8
L: 1/8
K: Dmaj
|:B|ADD BAF|Ade fdB|ADD BAG|F3 GFE|
ADD BAF|Ade fdB|AdB AFE|FDD D2:|
|:e|f3 ede|fdB AFA|B/c/dB AGF|GFG E2e|
f3 ede|fdB AFA|B/c/dB AFE|FDD D2:|
|:e|f3 afd|gbe gbe|f3 afd|ceA ceA|
f3 afd|gbe gbe|f3 ede|fdc d2:|


Tune 2025	Setting 15433

